lib/brands/icons/adobe-premiere-rush.svg

<svg xmlns="http://www.w3.org/2000/svg" fill="none" aria-hidden="true" viewBox="0 0 48 48"><g id="adobe-premiere-rush-Icon"><g id="Group"><path id="bg" fill="#00005B" d="M6 19.0286C6 14.4681 6 12.1879 6.88752 10.4461C7.6682 8.9139 8.9139 7.6682 10.4461 6.88752C12.1879 6 14.4681 6 19.0286 6H28.9714C33.5319 6 35.8121 6 37.5539 6.88752C39.0861 7.6682 40.3318 8.9139 41.1125 10.4461C42 12.1879 42 14.4681 42 19.0286V28.9714C42 33.5319 42 35.8121 41.1125 37.5539C40.3318 39.0861 39.0861 40.3318 37.5539 41.1125C35.8121 42 33.5319 42 28.9714 42H19.0286C14.4681 42 12.1879 42 10.4461 41.1125C8.9139 40.3318 7.6682 39.0861 6.88752 37.5539C6 35.8121 6 33.5319 6 28.9714V19.0286Z"/><g id="Vector"><path fill="#9999FF" d="M15.5049 31.4739H12.6229C12.4934 31.4739 12.4287 31.3991 12.4287 31.2481V15.3006C12.4287 15.1448 12.4769 15.0748 12.5792 15.0748C14.2733 15.0219 15.9668 15 17.6616 15C20.7628 15 23.9374 16.3864 23.9374 20.0448C23.955 22.0234 22.644 23.7071 20.9093 24.4214C22.327 26.6643 23.7568 28.9227 25.173 31.1671C25.2328 31.2399 25.2886 31.4858 25.1248 31.4677H21.6122C21.4813 31.4753 21.3474 31.4351 21.272 31.3182C20.1072 29.561 19.0759 27.6848 18.0679 25.8279C17.9346 25.616 17.7619 25.3942 17.4945 25.4089H15.7051V31.2512C15.7051 31.3991 15.6343 31.4739 15.5049 31.4739ZM15.6991 22.4403C17.3119 22.4403 20.6556 22.803 20.5692 20.2161C20.5692 17.7303 17.411 17.9283 15.6991 18.0854V22.4403Z"/><path fill="#9999FF" d="M36.7335 19.1318V28.6797C36.7335 29.3348 36.7285 29.9957 36.794 30.6482C36.8183 30.8907 36.8384 31.0359 36.8547 31.2028C36.8705 31.3368 36.8142 31.4034 36.6851 31.4034H34.0924C33.9702 31.4168 33.8505 31.3446 33.8016 31.2279C33.7387 30.9968 33.6836 30.7514 33.6805 30.5103C32.7551 31.3649 31.5323 31.7041 30.3125 31.7139C27.6718 31.7468 26.1825 29.5153 26.2418 26.8742V19.1569C26.2258 19.0417 26.3244 18.9398 26.4356 18.9563H29.3151C29.4264 18.9399 29.5248 19.0418 29.509 19.1569V26.473C29.509 27.8096 30.1594 28.6797 31.4998 28.6797C32.2047 28.6887 32.9044 28.3974 33.4722 27.9776V19.1318C33.4722 19.0151 33.5448 18.9563 33.6903 18.9563H36.5639C36.6612 18.9421 36.7472 19.0312 36.7335 19.1318Z"/></g></g></g></svg>

<svg xmlns="http://www.w3.org/2000/svg" fill="none" aria-hidden="true" viewBox="0 0 48 48"><path fill="#00005B" d="M6 19.029c0-4.56 0-6.841.888-8.583a8.143 8.143 0 0 1 3.558-3.558C12.188 6 14.468 6 19.03 6h9.942c4.56 0 6.841 0 8.583.888a8.143 8.143 0 0 1 3.558 3.558C42 12.188 42 14.468 42 19.03v9.942c0 4.56 0 6.841-.888 8.583a8.143 8.143 0 0 1-3.558 3.558C35.812 42 33.532 42 28.97 42h-9.94c-4.56 0-6.841 0-8.583-.888a8.143 8.143 0 0 1-3.558-3.558C6 35.812 6 33.532 6 28.97v-9.94Z"/><path fill="#99F" d="M15.505 31.474h-2.882c-.13 0-.194-.075-.194-.226V15.301c0-.156.048-.226.15-.226 1.694-.053 3.388-.075 5.083-.075 3.1 0 6.275 1.386 6.275 5.045.018 1.978-1.293 3.662-3.028 4.376 1.418 2.243 2.848 4.502 4.264 6.746.06.073.116.319-.048.3h-3.513c-.13.008-.265-.032-.34-.149-1.165-1.757-2.196-3.633-3.204-5.49-.133-.212-.306-.434-.574-.42h-1.789v5.843c0 .148-.07.223-.2.223Zm.194-9.034c1.613 0 4.957.363 4.87-2.224 0-2.486-3.158-2.288-4.87-2.13v4.354Zm21.034-3.308v9.548c0 .655-.005 1.316.061 1.968.024.243.044.388.06.555.017.134-.04.2-.169.2h-2.593a.286.286 0 0 1-.29-.175 2.923 2.923 0 0 1-.121-.718c-.926.855-2.149 1.194-3.368 1.204-2.641.033-4.13-2.199-4.071-4.84v-7.717c-.016-.115.082-.217.194-.2h2.88c.11-.017.209.085.193.2v7.316c0 1.337.65 2.207 1.99 2.207.706.009 1.405-.283 1.973-.702v-8.846c0-.117.073-.176.218-.176h2.874c.097-.014.183.075.17.176Z"/></svg>
